packages/tokens/icons/pipe/size32Px.svg

<svg viewBox="0 0 32 32" fill="none" xmlns="http://www.w3.org/2000/svg" width="1em" height="1em"><path fill-rule="evenodd" clip-rule="evenodd" d="M17.4999 21C17.7761 21 17.9999 21.2239 17.9999 21.5V24L25.4999 24C25.7761 24 25.9999 24.2239 25.9999 24.5C25.9999 24.7761 25.7761 25 25.4999 25L17.4999 25C17.2238 25 16.9999 24.7761 16.9999 24.5V21.5C16.9999 21.2239 17.2238 21 17.4999 21ZM5.99994 27.5C5.99994 27.2239 6.2238 27 6.49994 27L25.5 27C25.7761 27 26 27.2239 26 27.5C26 27.7761 25.7761 28 25.5 28L6.49994 28C6.2238 28 5.99994 27.7761 5.99994 27.5ZM13.9999 21.5C13.9999 21.2239 14.2238 21 14.4999 21C14.7761 21 14.9999 21.2239 14.9999 21.5V24.5C14.9999 24.7761 14.7761 25 14.4999 25H6.49994C6.2238 25 5.99994 24.7761 5.99994 24.5C5.99994 24.2239 6.2238 24 6.49994 24H13.9999V21.5Z" fill="currentColor"/><circle cx="15.9999" cy="12" r="9.5" stroke="currentColor"/><path fill-rule="evenodd" clip-rule="evenodd" d="M17.723 10.9839C17.899 11.2817 17.9999 11.629 17.9999 11.9999C17.9999 13.1045 17.1045 13.9999 15.9999 13.9999C14.8954 13.9999 13.9999 13.1045 13.9999 11.9999C13.9999 10.8953 14.8954 9.99989 15.9999 9.99989C16.3708 9.99989 16.7182 10.1009 17.0159 10.2768L17.1464 10.1463L20.1819 7.1108C20.3772 6.91554 20.6938 6.91554 20.889 7.1108C21.0843 7.30606 21.0843 7.62265 20.889 7.81791L17.8535 10.8534L17.723 10.9839ZM16.9999 11.9999C16.9999 12.5522 16.5522 12.9999 15.9999 12.9999C15.4477 12.9999 14.9999 12.5522 14.9999 11.9999C14.9999 11.4476 15.4477 10.9999 15.9999 10.9999C16.5522 10.9999 16.9999 11.4476 16.9999 11.9999Z" fill="currentColor"/></svg>

<svg xmlns="http://www.w3.org/2000/svg" fill="none" viewBox="0 0 32 32" width="1em" height="1em"><path fill="currentColor" fill-rule="evenodd" d="M17.5 21a.5.5 0 0 1 .5.5V24h7.5a.5.5 0 1 1 0 1h-8a.5.5 0 0 1-.5-.5v-3a.5.5 0 0 1 .5-.5ZM6 27.5a.5.5 0 0 1 .5-.5h19a.5.5 0 0 1 0 1h-19a.5.5 0 0 1-.5-.5Zm8-6a.5.5 0 0 1 1 0v3a.5.5 0 0 1-.5.5h-8a.5.5 0 0 1 0-1H14v-2.5Z" clip-rule="evenodd"/><circle cx="16" cy="12" r="9.5" stroke="currentColor"/><path fill="currentColor" fill-rule="evenodd" d="M17.723 10.984a2 2 0 1 1-.707-.707l.13-.13 3.036-3.036a.5.5 0 1 1 .707.707l-3.035 3.035-.131.13ZM17 12a1 1 0 1 1-2 0 1 1 0 0 1 2 0Z" clip-rule="evenodd"/></svg>
